svg/webhook.svg

<?xml version="1.0" encoding="UTF-8"?>
<svg xmlns="http://www.w3.org/2000/svg" xmlns:xlink="http://www.w3.org/1999/xlink" width="33.974998" height="32" viewBox="0 0 33.974998 32">
<path fill-rule="evenodd" fill="rgb(78.039217%, 22.745098%, 38.82353%)" fill-opacity="1" d="M 15.738281 13.246094 L 11.636719 20.203125 C 11.285156 20.789062 11.113281 21.265625 11.390625 22.007812 C 12.164062 24.066406 11.074219 26.066406 9.023438 26.609375 C 7.085938 27.125 5.203125 25.835938 4.820312 23.742188 C 4.476562 21.890625 5.902344 20.074219 7.921875 19.78125 C 8.09375 19.757812 8.265625 19.753906 8.550781 19.734375 L 11.625 14.519531 C 9.691406 12.578125 8.539062 10.304688 8.792969 7.488281 C 8.976562 5.496094 9.75 3.777344 11.164062 2.367188 C 13.875 -0.332031 18.011719 -0.769531 21.203125 1.300781 C 24.265625 3.292969 25.671875 7.171875 24.476562 10.488281 L 21.664062 9.71875 C 22.039062 7.875 21.761719 6.214844 20.53125 4.796875 C 19.71875 3.859375 18.675781 3.367188 17.488281 3.1875 C 15.109375 2.824219 12.773438 4.367188 12.078125 6.730469 C 11.292969 9.410156 12.484375 11.597656 15.738281 13.246094 M 15.738281 13.246094 "/>
<path fill-rule="evenodd" fill="rgb(29.411766%, 29.411766%, 29.411766%)" fill-opacity="1" d="M 19.726562 10.441406 L 22.699219 15.742188 C 27.707031 14.175781 31.480469 16.976562 32.832031 19.976562 C 34.46875 23.597656 33.351562 27.890625 30.140625 30.125 C 26.84375 32.417969 22.671875 32.027344 19.753906 29.078125 L 22.042969 27.140625 C 24.929688 29.03125 27.453125 28.941406 29.324219 26.703125 C 30.921875 24.796875 30.886719 21.953125 29.246094 20.082031 C 27.347656 17.925781 24.808594 17.863281 21.734375 19.929688 L 17.933594 13.078125 C 17.515625 12.300781 17.058594 11.851562 16.121094 11.6875 C 14.554688 11.414062 13.542969 10.054688 13.480469 8.53125 C 13.421875 7.023438 14.300781 5.664062 15.671875 5.132812 C 17.054688 4.605469 18.621094 5.039062 19.539062 6.199219 C 20.285156 7.152344 20.523438 8.226562 20.128906 9.40625 C 20.023438 9.734375 19.878906 10.050781 19.726562 10.441406 M 19.726562 10.441406 "/>
<path fill-rule="evenodd" fill="rgb(29.019609%, 29.019609%, 29.019609%)" fill-opacity="1" d="M 22.078125 24.789062 L 16.054688 24.789062 C 15.476562 27.1875 14.226562 29.128906 12.078125 30.359375 C 10.40625 31.320312 8.605469 31.644531 6.691406 31.332031 C 3.160156 30.753906 0.273438 27.542969 0.0195312 23.925781 C -0.265625 19.828125 2.519531 16.1875 6.230469 15.371094 L 7.003906 18.199219 C 3.597656 19.957031 2.417969 22.171875 3.371094 24.941406 C 4.210938 27.375 6.59375 28.710938 9.183594 28.195312 C 11.828125 27.667969 13.160156 25.445312 12.996094 21.882812 L 20.515625 21.894531 C 21.496094 21.910156 22.25 21.808594 22.988281 20.933594 C 24.203125 19.5 26.4375 19.628906 27.746094 20.984375 C 29.082031 22.371094 29.015625 24.597656 27.601562 25.925781 C 26.945312 26.542969 26.070312 26.875 25.171875 26.839844 C 24.269531 26.808594 23.417969 26.417969 22.808594 25.757812 C 22.542969 25.472656 22.339844 25.136719 22.078125 24.789062 M 22.078125 24.789062 "/>
</svg>

<svg role="img" viewBox="0 0 33.975 32" xmlns="http://www.w3.org/2000/svg"><path d="m15.738 13.246-4.101 6.957c-.352.586-.524 1.063-.246 1.805.773 2.058-.317 4.058-2.368 4.601-1.937.516-3.82-.773-4.203-2.867-.343-1.851 1.082-3.668 3.102-3.96.172-.024.344-.028.629-.048l3.074-5.214c-1.934-1.942-3.086-4.215-2.832-7.032.184-1.992.957-3.71 2.371-5.12 2.711-2.7 6.848-3.138 10.04-1.067 3.062 1.992 4.468 5.87 3.273 9.187l-2.813-.77c.375-1.843.098-3.503-1.133-4.921-.812-.938-1.855-1.43-3.043-1.61-2.379-.363-4.715 1.18-5.41 3.543-.785 2.68.406 4.868 3.66 6.516m0 0" fill="rgb(78.039217%, 22.745098%, 38.82353%)" fill-rule="evenodd"/><path d="m19.727 10.441 2.972 5.301c5.008-1.566 8.781 1.235 10.133 4.235 1.637 3.62.52 7.914-2.691 10.148-3.297 2.293-7.47 1.902-10.387-1.047l2.289-1.937c2.887 1.89 5.41 1.8 7.281-.438 1.598-1.906 1.563-4.75-.078-6.621-1.898-2.156-4.437-2.219-7.512-.152l-3.8-6.852c-.418-.777-.875-1.226-1.813-1.39-1.566-.274-2.578-1.633-2.64-3.157-.06-1.508.82-2.867 2.19-3.398a3.39 3.39 0 0 1 3.868 1.066c.746.953.984 2.028.59 3.207-.106.328-.25.645-.402 1.035m0 0" fill="rgb(29.411766%, 29.411766%, 29.411766%)" fill-rule="evenodd"/><path d="M22.078 24.79h-6.023c-.578 2.398-1.828 4.339-3.977 5.57-1.672.96-3.473 1.285-5.387.972-3.53-.578-6.418-3.789-6.671-7.406-.286-4.098 2.5-7.738 6.21-8.555l.774 2.828c-3.406 1.758-4.586 3.973-3.633 6.742.84 2.434 3.223 3.77 5.813 3.254 2.644-.527 3.976-2.75 3.812-6.312l7.52.012c.98.015 1.734-.086 2.472-.961 1.215-1.434 3.45-1.305 4.758.05 1.336 1.387 1.27 3.614-.144 4.942a3.376 3.376 0 0 1-4.793-.168c-.266-.285-.47-.621-.73-.969m0 0" fill="rgb(29.019609%, 29.019609%, 29.019609%)" fill-rule="evenodd"/></svg>
